X: 68
T: MARCH: Bonaparte Crossing the Rhine
C: C: Trad.; S: Various
C: Set Leaders: Alexey, Sophie, Anton
Z: [Unedited]; ceolachan at The Session
N: https://thesession.org/members/26966/sets/99667
R: March
M: 4/4
L: 1/8
Q: 1/2=82
K: Ador
|:E>G|A2 A>B A>GE>D|c>de>c d2 e>g|a>ge>d c>AG>E|G>Ec>E G2 E>G|
A2 A>B A>GE>D|c>de>c d2 e>g|a>ge>d c>AG>E|A2 A>A A2:||
|:eg|a>ge>d c>de>f|g>ea>f g2 e>g|a>ge>d c>AG>E|G>Ec>E G2 E>G|
c>AB>G A>GE>D|c>de>c d2 e>g|a>ge>d c>AG>E|A2 A2 A2:||

